X: 880
T: The Killashandra Lasses
N:"Collected by O'Reilly"
B:O'Neill's 880
Z:Transcribed by Dan G. Petersen, dangp@post6.tele.dk
M:6/8
L:1/8
K:Em
D|GAG BAG|dBG BAG|ABA ABd|ecA A2D|
GAG BAG|dBG BAG|ABc BAB|GEE E2:|
d|efg fed|efg dBG|ABA ABd|ecA A2d|
|1 efg fed|efg dBG|ABc BAB|GEE E2:|
|2 bag agf|gfe dBG|ABc BAB|GEE E2|]


